src/Pure/16/symbolic/actions/view-conceal-symbolic.svg

<?xml version="1.0" encoding="UTF-8" standalone="no"?>
<svg
   width="16"
   height="16"
   enable-background="new"
   version="1.1"
   id="svg1"
   sodipodi:docname="view-conceal-symbolic.svg"
   inkscape:version="1.4.2 (ebf0e940d0, 2025-05-08)"
   xmlns:inkscape="http://www.inkscape.org/namespaces/inkscape"
   xmlns:sodipodi="http://sodipodi.sourceforge.net/DTD/sodipodi-0.dtd"
   xmlns="http://www.w3.org/2000/svg"
   xmlns:svg="http://www.w3.org/2000/svg">
  <defs
     id="defs1">
    <style
       id="current-color-scheme"
       type="text/css">
        .ColorScheme-Text { color:#363636; }
        .ColorScheme-NegativeText { color:#da4453; }
     </style>
  </defs>
  <sodipodi:namedview
     id="namedview1"
     pagecolor="#ffffff"
     bordercolor="#000000"
     borderopacity="0.25"
     inkscape:showpageshadow="2"
     inkscape:pageopacity="0.0"
     inkscape:pagecheckerboard="0"
     inkscape:deskcolor="#d1d1d1"
     inkscape:zoom="49.6875"
     inkscape:cx="8"
     inkscape:cy="8"
     inkscape:window-width="1920"
     inkscape:window-height="1010"
     inkscape:window-x="0"
     inkscape:window-y="0"
     inkscape:window-maximized="1"
     inkscape:current-layer="svg1" />
  <path
     id="path1"
     style="fill:currentColor"
     class="ColorScheme-Text"
     d="M 7.9980469 2.0390625 C 4.2283298 2.0436425 0.92791376 4.4058447 -0.009765625 7.7695312 A 1.0419771 0.95987616 0 0 0 -0.009765625 8.2480469 C 0.37098601 9.5993415 1.1374256 10.78426 2.1582031 11.722656 L 2.8691406 11.011719 C 1.9928199 10.196302 1.3294928 9.1774078 1 8.0078125 C 1.820832 5.0634242 4.7001726 3.004 8 3 C 8.863311 3.0005345 9.6940198 3.1490172 10.470703 3.4101562 L 11.230469 2.6503906 C 10.230491 2.2581022 9.136675 2.0397625 8 2.0390625 A 1.0419771 0.95987616 0 0 0 7.9980469 2.0390625 z M 13.84375 4.2792969 L 13.132812 4.9902344 C 14.008123 5.8053512 14.670707 6.8233922 15 7.9921875 C 14.179168 10.936576 11.299827 12.996 8 13 C 7.137589 12.999476 6.307233 12.852396 5.53125 12.591797 L 4.7734375 13.349609 C 5.7725155 13.741307 6.864625 13.960248 8 13.960938 A 1.0419771 0.95987616 0 0 0 8.0019531 13.960938 C 11.77167 13.956338 15.072086 11.594156 16.009766 8.2304688 A 1.0419771 0.95987616 0 0 0 16.009766 7.75 C 15.629384 6.4000054 14.862928 5.2168931 13.84375 4.2792969 z M 8 5 A 2.999934 2.999988 0 0 0 5 8 A 2.999934 2.999988 0 0 0 5.1054688 8.7753906 L 6.0058594 7.875 A 1.999956 1.999992 0 0 1 7.875 6.0058594 L 8.7773438 5.1035156 A 2.999934 2.999988 0 0 0 8 5 z M 10.894531 7.2285156 L 9.9941406 8.1289062 A 1.999956 1.999992 0 0 1 8.1289062 9.9941406 L 7.2265625 10.896484 A 2.999934 2.999988 0 0 0 8 11 A 2.999934 2.999988 0 0 0 11 8 A 2.999934 2.999988 0 0 0 10.894531 7.2285156 z " />
  <rect
     transform="rotate(-45)"
     x="-8"
     y="10.814"
     width="16"
     height="1"
     ry="0"
     style="fill:currentColor"
     class="ColorScheme-Text"
     id="rect1" />
</svg>

<svg width="16" height="16" version="1.1" xmlns="http://www.w3.org/2000/svg">
 <g transform="matrix(-.90463 0 0 .83333 15.237 1.3333)" fill="#363636">
  <path transform="matrix(1.1054 0 0 1.2 -.84343 -1.6)" d="m7.998 2.0391c-3.7698 0.004577-7.0701 2.3668-8.0078 5.7305a1.042 0.95988 0 0 0 0 0.47852c0.38076 1.3513 1.1472 2.5362 2.168 3.4746l0.71094-0.71094c-0.87634-0.81542-1.5396-1.8343-1.8691-3.0039 0.82085-2.9444 3.7001-5.0038 7-5.0078 0.86333 5.345e-4 1.694 0.14902 2.4707 0.41016l0.75977-0.75977c-1-0.39229-2.0938-0.61063-3.2305-0.61133a1.042 0.95988 0 0 0-0.00195 0zm5.8457 2.2402-0.71094 0.71094c0.87533 0.81512 1.5379 1.8332 1.8672 3.002-0.82085 2.9444-3.7001 5.0038-7 5.0078-0.86243-5.24e-4 -1.6928-0.1476-2.4688-0.4082l-0.75781 0.75781c0.9991 0.3917 2.0912 0.61064 3.2266 0.61133a1.042 0.95988 0 0 0 0.00195 0c3.7698-0.0046 7.0701-2.3668 8.0078-5.7305a1.042 0.95988 0 0 0 0-0.48047c-0.38039-1.35-1.1468-2.5331-2.166-3.4707zm-5.8438 0.7207a3 3 0 0 0-3 3 3 3 0 0 0 0.10547 0.77539l0.90039-0.90039a2 2 0 0 1 1.8691-1.8691l0.90234-0.90234a3 3 0 0 0-0.77734-0.10352zm2.8945 2.2285-0.90039 0.90039a2 2 0 0 1-1.8652 1.8652l-0.90234 0.90234a3 3 0 0 0 0.77344 0.10352 3 3 0 0 0 3-3 3 3 0 0 0-0.10547-0.77148z" fill="#363636"/>
 </g>
 <rect transform="matrix(-.70711 -.70711 -.70711 .70711 0 0)" x="-19.314" y="-.49958" width="16" height="1" ry="0" fill="#363636"/>
</svg>
